X:62
T: Asszony, asszony, ki az ágyból...
K: F
M: 2/4
L: 1/4
g d | g a | f2 | 
g d | f/d/ c | B2 | 
B B/F/ | B/c/ d | f2 | 
f B | c/B/A | G 

